X:3
T:Slytheryn House (8x32 Strathspey)
T:Bennrinnes
C:Traditional
Z:Ian R Muir 19/09/2018
Z:Copyright of arrangement RSCDS
L:1/8
M:4/4
I:linebreak $
K:Dmin
|: A | "Dm"A<d d>c d>c A>d |"C" c>A G<c E>D C>E |"Dm" A<d d>c d>c A<c |"C" G>c E>c"Dm" D2 D2 |
$"Dm" A<d d>c d>c A>d | "F"c>A "E/C"G<c "C"E>D "Am"C>E |"Dm" A<d d>c"Dm" d>e f>a |"G" g>c "A7"g>e"Dm"d2 de/g/ |
$"Dm" a>d a>g "G7"a<d de/f/ |"C" g>c g>e "G/c"g<c ce/g/ |"Dm" a>d a>g "G7" a<d de/f/ |"C" g>c "A7"g>e "Dm" d2 de/g/ |
$"Dm" a>d a>g "G7"a<d de/f/ |"C" g>a g>e "E/c7"c>d e>g |"F"a>a "C"e>g "D/G7"d>e "C" c>G |"Am" A<c "A7" G>E "Dm" D2 D:| 

